svgs/sharp-solid/treasure-chest.svg

<svg xmlns="http://www.w3.org/2000/svg" viewBox="0 0 576 512"><!--! Font Awesome Pro 6.6.0 by @fontawesome - https://fontawesome.com License - https://fontawesome.com/license (Commercial License) Copyright 2024 Fonticons, Inc. --><path d="M0 160l0 96 128 0 0-224C57.3 32 0 89.3 0 160zM0 480l128 0 0-192L0 288 0 480zm416 0l0-192-64 0 0 64-128 0 0-64-64 0 0 192 256 0zm160 0l0-192-128 0 0 192 128 0zm0-320c0-70.7-57.3-128-128-128l0 224 128 0 0-96zM416 256l0-224L160 32l0 224 64 0 0-64 128 0 0 64 64 0zM304 240l0-16-32 0 0 16 0 64 0 16 32 0 0-16 0-64z"/></svg>

<svg xmlns="http://www.w3.org/2000/svg" viewBox="0 0 576 512"><!--! Font Awesome Pro 6.4.2 by @fontawesome - https://fontawesome.com License - https://fontawesome.com/license (Commercial License) Copyright 2023 Fonticons, Inc. --><path d="M0 160v96H128V32C57.3 32 0 89.3 0 160zM0 480H128V288H0V480zm416 0V288H352v64H224V288H160V480H416zm160 0V288H448V480H576zm0-320c0-70.7-57.3-128-128-128V256H576V160zM416 256V32H160V256h64V192H352v64h64zM304 240V224H272v16 64 16h32V304 240z"/></svg>
